<?xml version="1.0" encoding="UTF-8"?>
<map version="1.10" tiledversion="1.11.2" orientation="orthogonal" renderorder="right-down" width="49" height="35" tilewidth="16" tileheight="16" infinite="1" nextlayerid="7" nextobjectid="15">
 <tileset firstgid="1" source="tiles/Dungeon_Tiles.tsx"/>
 <layer id="1" name="ground" width="49" height="35">
  <data encoding="csv">
   <chunk x="0" y="0" width="16" height="16">
0,0,0,0,0,0,0,0,0,0,0,0,0,0,0,0,
0,0,0,0,0,0,0,0,0,0,0,0,0,0,0,0,
304,304,304,304,304,104,304,304,304,304,304,304,304,304,304,304,
304,304,304,304,304,129,304,304,304,304,304,304,304,304,304,304,
304,304,304,304,304,129,304,304,304,304,304,304,304,304,304,304,
304,304,304,304,304,304,5,6,6,6,6,6,6,6,476,477,
304,304,304,304,304,304,30,31,82,82,83,82,83,31,501,502,
304,304,304,304,304,304,30,31,31,83,81,82,81,83,526,527,
304,304,304,304,304,304,30,82,31,80,82,31,83,31,80,31,
304,304,304,304,304,304,30,80,81,82,31,80,80,80,81,81,
304,304,304,304,304,304,30,81,81,31,80,83,31,83,83,82,
304,304,304,304,304,304,30,83,81,83,81,83,31,80,31,80,
304,304,304,304,304,304,30,31,81,31,83,31,80,82,80,31,
304,304,304,304,304,304,30,80,82,81,82,31,81,31,81,82,
304,304,304,304,304,304,30,81,81,82,31,82,83,81,82,82,
304,304,304,304,304,304,30,81,81,83,81,80,81,80,31,31
</chunk>
   <chunk x="16" y="0" width="16" height="16">
0,0,0,0,0,0,0,0,0,0,0,0,0,0,0,0,
0,0,0,0,0,0,0,0,0,0,0,0,0,0,0,0,
304,304,304,304,2,304,304,304,304,304,304,304,304,304,304,304,
304,304,304,304,27,304,304,304,304,304,304,304,304,304,304,304,
304,304,304,304,304,304,304,304,304,304,304,304,304,304,304,304,
478,6,83,476,477,478,83,6,476,477,478,6,6,6,6,6,
503,83,31,501,502,503,31,285,501,502,503,82,31,31,81,81,
528,333,82,526,527,528,285,81,526,527,528,82,82,82,81,80,
80,31,80,81,333,82,82,80,82,80,83,80,82,81,83,81,
285,333,82,83,31,83,82,286,81,83,31,82,80,31,31,80,
83,83,31,80,286,81,82,31,81,83,80,83,81,82,31,81,
83,80,333,31,83,81,285,80,31,31,83,80,83,83,80,81,
31,82,80,81,82,83,81,81,82,31,80,81,80,83,83,31,
81,83,31,31,83,83,80,82,31,80,80,80,83,31,82,82,
83,83,83,333,80,80,80,82,83,81,81,80,31,82,81,80,
82,31,82,82,81,82,83,31,31,81,81,80,83,81,80,81
</chunk>
   <chunk x="32" y="0" width="16" height="16">
0,0,0,0,0,0,0,0,0,0,0,0,0,0,0,0,
0,0,0,0,0,0,0,0,0,0,0,0,0,0,0,0,
304,304,304,105,304,304,304,304,304,304,304,304,304,304,304,304,
304,304,304,130,304,304,304,304,304,304,304,304,304,304,304,304,
304,304,304,130,304,304,304,304,304,304,304,304,304,304,304,304,
6,6,7,303,303,304,304,304,304,304,304,304,304,304,304,304,
81,81,32,303,303,304,304,304,304,304,304,304,304,304,304,304,
80,31,32,303,303,304,304,304,304,304,304,304,304,304,304,304,
31,80,32,303,303,304,304,304,304,304,304,304,304,304,304,304,
80,83,32,303,303,304,304,304,304,304,304,304,304,304,304,304,
82,80,32,303,303,304,304,304,304,304,304,304,304,304,304,304,
83,31,32,303,303,304,304,304,304,304,304,304,304,304,304,304,
82,83,32,303,303,304,304,304,304,304,304,304,304,304,304,304,
31,81,32,303,303,304,304,304,304,304,304,304,304,304,304,304,
80,81,32,303,303,304,304,304,304,304,304,304,304,304,304,304,
81,80,32,303,303,304,304,304,304,304,304,304,304,304,304,304
</chunk>
   <chunk x="0" y="16" width="16" height="16">
304,304,304,304,304,304,30,80,31,80,80,31,82,80,80,83,
304,304,304,304,304,304,30,81,82,82,83,83,82,31,81,80,
304,304,304,304,304,304,30,81,83,81,81,82,81,31,80,80,
304,304,304,304,304,304,30,82,31,31,80,80,31,80,83,81,
304,304,304,304,304,304,8,3221225478,3221225478,3221225478,3221225478,3221225478,3221225478,3221225478,3221225478,3221225478,
304,304,304,304,304,304,33,34,34,34,34,34,34,34,34,34,
304,304,304,304,304,304,33,34,34,34,34,34,34,34,34,34,
304,304,304,304,304,304,33,34,34,34,34,34,34,34,34,34,
304,304,304,304,304,304,33,34,34,34,34,34,34,34,34,34,
304,304,304,304,304,304,33,34,34,34,34,34,34,34,34,34,
304,304,304,304,304,304,33,34,34,34,34,34,34,34,34,34,
304,304,304,304,304,304,33,34,34,34,34,34,34,34,34,34,
304,304,304,304,304,304,33,34,34,34,34,34,34,34,34,34,
304,304,304,304,304,304,33,34,34,34,34,34,34,34,34,34,
304,304,304,304,304,304,33,34,34,34,34,34,34,34,34,34,
304,304,304,304,304,304,33,34,34,34,34,34,34,34,34,34
</chunk>
   <chunk x="16" y="16" width="16" height="16">
81,82,80,82,81,31,82,31,83,80,80,82,82,81,83,82,
80,80,83,31,82,31,81,81,83,81,83,81,31,82,83,80,
82,83,31,80,285,31,80,80,31,31,80,81,81,31,82,81,
81,80,31,82,82,81,82,82,83,80,82,81,81,31,82,31,
3221225478,3221225478,9,9,9,9,31,3221225478,3221225478,3221225478,3221225478,3221225478,3221225478,3221225478,3221225478,3221225478,
34,34,2684354667,35,31,33,1610612842,34,34,34,34,34,34,34,34,34,
34,34,2684354667,35,31,33,1610612842,34,34,34,34,34,34,34,34,34,
34,34,2684354667,35,31,33,1610612842,34,34,34,34,34,34,34,34,34,
34,34,2684354667,35,31,33,1610612842,34,34,34,34,34,34,34,34,34,
34,34,2684354667,35,31,33,1610612842,34,34,34,34,34,34,34,34,34,
34,34,2684354667,35,31,33,1610612842,34,34,34,34,34,34,34,34,34,
34,34,2684354667,35,31,33,1610612842,34,34,34,34,34,34,34,34,34,
34,34,2684354667,35,31,33,1610612842,34,34,34,34,34,34,34,34,34,
34,34,2684354667,35,31,33,1610612842,34,34,34,34,34,34,34,34,34,
34,34,2684354667,35,31,33,1610612842,34,34,34,34,34,34,34,34,34,
34,34,2684354667,35,31,33,1610612842,34,34,34,34,34,34,34,34,34
</chunk>
   <chunk x="32" y="16" width="16" height="16">
81,80,32,303,303,304,304,304,304,304,304,304,304,304,304,304,
82,81,32,303,303,304,304,304,304,304,304,304,304,304,304,304,
81,31,32,303,303,304,304,304,304,304,304,304,304,304,304,304,
31,80,32,303,303,304,304,304,304,304,304,304,304,304,304,304,
9,3221225478,10,303,303,304,304,304,304,304,304,304,304,304,304,304,
34,34,35,303,303,304,304,304,304,304,304,304,304,304,304,304,
34,34,35,303,303,304,304,304,304,304,304,304,304,304,304,304,
34,34,35,303,303,304,304,304,304,304,304,304,304,304,304,304,
34,34,35,303,303,304,304,304,304,304,304,304,304,304,304,304,
34,34,35,303,303,304,304,304,304,304,304,304,304,304,304,304,
34,34,35,303,303,304,304,304,304,304,304,304,304,304,304,304,
34,34,35,303,303,304,304,304,304,304,304,304,304,304,304,304,
34,34,35,303,303,304,304,304,304,304,304,304,304,304,304,304,
34,34,35,303,303,304,304,304,304,304,304,304,304,304,304,304,
34,34,35,303,303,304,304,304,304,304,304,304,304,304,304,304,
34,34,35,303,303,304,304,304,304,304,304,304,304,304,304,304
</chunk>
   <chunk x="0" y="32" width="16" height="16">
304,304,304,304,304,304,33,34,34,34,34,34,34,34,34,34,
304,304,304,304,304,304,58,59,59,59,59,59,59,59,59,59,
304,304,304,304,304,154,1610612865,1610612865,1610612865,1610612865,1610612865,1610612865,1610612865,1610612865,1610612865,1610612865,
0,0,0,0,0,0,0,0,0,0,0,0,0,0,0,0,
0,0,0,0,0,0,0,0,0,0,0,0,0,0,0,0,
0,0,0,0,0,0,0,0,0,0,0,0,0,0,0,0,
0,0,0,0,0,0,0,0,0,0,0,0,0,0,0,0,
0,0,0,0,0,0,0,0,0,0,0,0,0,0,0,0,
0,0,0,0,0,0,0,0,0,0,0,0,0,0,0,0,
0,0,0,0,0,0,0,0,0,0,0,0,0,0,0,0,
0,0,0,0,0,0,0,0,0,0,0,0,0,0,0,0,
0,0,0,0,0,0,0,0,0,0,0,0,0,0,0,0,
0,0,0,0,0,0,0,0,0,0,0,0,0,0,0,0,
0,0,0,0,0,0,0,0,0,0,0,0,0,0,0,0,
0,0,0,0,0,0,0,0,0,0,0,0,0,0,0,0,
0,0,0,0,0,0,0,0,0,0,0,0,0,0,0,0
</chunk>
   <chunk x="16" y="32" width="16" height="16">
34,34,5,206,207,207,7,34,34,34,34,34,34,34,34,34,
59,59,33,231,232,232,35,59,59,59,59,59,59,59,59,59,
1610612865,1610612865,1610612865,1610612865,1610612865,1610612865,1610612865,1610612865,1610612865,1610612865,1610612865,1610612865,1610612865,1610612865,1610612865,1610612865,
0,0,0,0,0,0,0,0,0,0,0,0,0,0,0,0,
0,0,0,0,0,0,0,0,0,0,0,0,0,0,0,0,
0,0,0,0,0,0,0,0,0,0,0,0,0,0,0,0,
0,0,0,0,0,0,0,0,0,0,0,0,0,0,0,0,
0,0,0,0,0,0,0,0,0,0,0,0,0,0,0,0,
0,0,0,0,0,0,0,0,0,0,0,0,0,0,0,0,
0,0,0,0,0,0,0,0,0,0,0,0,0,0,0,0,
0,0,0,0,0,0,0,0,0,0,0,0,0,0,0,0,
0,0,0,0,0,0,0,0,0,0,0,0,0,0,0,0,
0,0,0,0,0,0,0,0,0,0,0,0,0,0,0,0,
0,0,0,0,0,0,0,0,0,0,0,0,0,0,0,0,
0,0,0,0,0,0,0,0,0,0,0,0,0,0,0,0,
0,0,0,0,0,0,0,0,0,0,0,0,0,0,0,0
</chunk>
   <chunk x="32" y="32" width="16" height="16">
34,34,35,303,303,304,304,304,304,304,304,304,304,304,304,304,
59,59,60,303,303,304,304,304,304,304,304,304,304,304,304,304,
1610612865,1610612865,1610612865,155,304,304,304,304,304,304,304,304,304,304,304,304,
0,0,0,0,0,0,0,0,0,0,0,0,0,0,0,0,
0,0,0,0,0,0,0,0,0,0,0,0,0,0,0,0,
0,0,0,0,0,0,0,0,0,0,0,0,0,0,0,0,
0,0,0,0,0,0,0,0,0,0,0,0,0,0,0,0,
0,0,0,0,0,0,0,0,0,0,0,0,0,0,0,0,
0,0,0,0,0,0,0,0,0,0,0,0,0,0,0,0,
0,0,0,0,0,0,0,0,0,0,0,0,0,0,0,0,
0,0,0,0,0,0,0,0,0,0,0,0,0,0,0,0,
0,0,0,0,0,0,0,0,0,0,0,0,0,0,0,0,
0,0,0,0,0,0,0,0,0,0,0,0,0,0,0,0,
0,0,0,0,0,0,0,0,0,0,0,0,0,0,0,0,
0,0,0,0,0,0,0,0,0,0,0,0,0,0,0,0,
0,0,0,0,0,0,0,0,0,0,0,0,0,0,0,0
</chunk>
  </data>
 </layer>
 <layer id="4" name="WALLS" width="49" height="35">
  <data encoding="csv">
   <chunk x="0" y="0" width="16" height="16">
0,0,0,0,0,0,0,0,0,0,0,0,0,0,0,0,
0,0,304,304,304,304,303,303,303,303,303,303,303,303,303,303,
0,0,304,304,304,304,1,2,3,4,1,2,3,352,1,2,
0,0,304,253,253,253,26,27,28,29,26,27,28,377,26,27,
0,0,304,253,253,303,51,52,53,54,51,52,53,402,51,452,
0,0,303,303,303,129,303,304,304,79,304,304,304,427,304,304,
0,0,303,303,303,129,30,304,304,304,304,304,304,304,304,304,
0,0,303,303,303,129,30,304,304,304,304,304,304,304,304,304,
0,0,303,303,303,129,30,304,304,304,304,304,304,304,304,304,
0,0,303,303,303,129,303,304,304,304,304,304,304,304,304,304,
0,0,303,303,303,129,303,304,304,304,304,304,304,304,304,304,
0,0,303,303,303,129,303,304,304,304,304,304,304,304,304,304,
0,0,303,303,303,129,303,304,304,304,304,304,304,304,304,304,
0,0,303,303,303,129,303,304,304,304,304,304,304,304,304,304,
0,0,303,303,303,129,303,304,304,304,304,304,304,304,304,304,
0,0,303,303,303,129,303,304,304,304,304,304,304,304,304,304
</chunk>
   <chunk x="16" y="0" width="16" height="16">
0,0,0,0,0,0,0,0,0,0,0,0,0,0,0,0,
303,303,303,303,303,303,303,303,303,303,303,303,303,303,303,303,
3,353,1,2,303,2,3,353,1,2,3,351,1,2,3,4,
28,378,26,27,303,27,28,378,26,27,28,376,26,27,28,29,
53,403,51,52,452,52,53,403,51,452,53,401,51,52,53,54,
304,428,304,304,304,304,304,428,304,304,304,426,304,304,304,79,
304,304,304,304,304,304,304,304,304,304,304,304,304,304,304,304,
304,304,304,304,304,304,304,304,304,304,304,304,304,304,304,304,
304,304,304,304,304,304,304,304,304,304,304,304,304,304,304,304,
304,304,304,304,304,304,304,304,304,304,304,304,304,304,304,304,
304,304,304,304,304,304,304,304,304,304,304,304,304,304,304,304,
304,304,304,304,304,304,304,304,304,304,304,304,304,304,304,304,
304,304,304,304,304,304,304,304,304,304,304,304,304,304,304,304,
304,304,304,304,304,304,304,304,304,304,304,304,304,304,304,304,
304,304,304,304,304,304,304,304,304,304,304,304,304,304,304,304,
304,304,304,304,304,304,304,304,304,304,304,304,304,304,304,304
</chunk>
   <chunk x="32" y="0" width="16" height="16">
0,0,0,303,0,0,0,0,0,0,0,0,0,0,0,0,
303,303,303,303,304,304,304,304,304,304,304,304,0,0,0,0,
1,2,3,303,304,304,304,304,304,304,304,304,0,0,0,0,
26,27,28,303,304,304,304,304,304,304,304,304,0,0,0,0,
51,52,53,253,253,253,304,304,304,304,304,304,0,0,0,0,
304,304,303,130,303,303,304,304,304,304,304,304,0,0,0,0,
304,304,303,130,303,303,304,304,304,304,304,304,0,0,0,0,
304,304,303,130,303,303,304,304,304,304,304,304,0,0,0,0,
304,304,303,130,303,303,304,304,304,304,304,304,0,0,0,0,
304,304,303,130,303,303,304,304,304,304,304,304,0,0,0,0,
304,304,303,130,303,303,304,304,304,304,304,304,0,0,0,0,
304,304,303,130,303,303,304,304,304,304,304,304,0,0,0,0,
304,304,303,130,303,303,304,304,304,304,304,304,0,0,0,0,
304,304,303,130,303,303,304,304,304,304,304,304,0,0,0,0,
304,304,303,130,303,303,304,304,304,304,304,304,0,0,0,0,
304,304,303,130,303,303,304,304,304,304,304,304,0,0,0,0
</chunk>
   <chunk x="0" y="16" width="16" height="16">
0,0,303,303,303,129,303,304,304,304,304,304,304,304,304,304,
0,0,303,303,303,129,303,304,304,304,304,304,304,304,304,304,
0,0,303,303,303,129,303,304,304,304,304,304,304,304,304,304,
0,0,303,303,303,129,303,304,304,304,304,304,304,304,304,304,
0,0,303,303,303,129,303,304,304,304,304,304,304,304,304,304,
0,0,303,303,303,129,303,304,304,304,304,304,304,304,304,304,
0,0,303,303,303,129,303,304,304,304,304,304,304,304,304,304,
0,0,303,303,303,129,303,304,304,304,304,304,304,304,304,304,
0,0,303,303,303,129,303,304,304,304,304,304,304,304,304,304,
0,0,303,303,303,129,303,304,304,304,304,304,304,304,304,304,
0,0,303,303,303,129,303,304,304,304,304,304,304,304,304,304,
0,0,303,303,303,129,303,304,304,304,304,304,304,304,304,304,
0,0,303,303,303,129,303,304,304,304,304,304,304,304,304,304,
0,0,303,303,303,129,303,304,304,304,304,304,304,304,304,304,
0,0,303,303,303,129,303,304,304,304,304,304,304,304,304,304,
0,0,303,303,303,129,303,304,304,304,304,304,304,304,304,304
</chunk>
   <chunk x="16" y="16" width="16" height="16">
304,304,304,304,304,304,304,304,304,304,304,304,304,304,304,304,
304,304,304,304,304,304,304,304,304,304,304,304,304,304,304,304,
304,304,304,304,304,304,304,304,304,304,304,304,304,304,304,304,
304,304,304,304,304,304,304,304,304,304,304,304,304,304,304,304,
304,304,304,304,304,304,56,304,304,304,304,304,304,304,304,304,
304,304,304,304,304,304,304,304,304,304,304,304,304,304,304,304,
304,304,304,304,304,304,304,304,304,304,304,304,304,304,304,304,
304,304,304,304,304,304,304,304,304,304,304,304,304,304,304,304,
304,304,304,304,304,304,304,304,304,304,304,304,304,304,304,304,
304,304,304,304,304,304,304,304,304,304,304,304,304,304,304,304,
304,304,304,304,304,304,304,304,304,304,304,304,304,304,304,304,
304,304,304,304,304,304,304,304,304,304,304,304,304,304,304,304,
304,304,304,304,304,304,304,304,304,304,304,304,304,304,304,304,
304,304,304,304,304,304,304,304,304,304,304,304,304,304,304,304,
304,304,304,304,304,304,304,304,304,304,304,304,304,304,304,304,
304,304,304,304,304,304,304,304,304,304,304,304,304,304,304,304
</chunk>
   <chunk x="32" y="16" width="16" height="16">
304,304,303,130,303,303,304,304,304,304,304,304,0,0,0,0,
304,304,303,130,303,303,304,304,304,304,304,304,0,0,0,0,
304,304,303,130,303,303,304,304,304,304,304,304,0,0,0,0,
304,304,303,130,303,303,304,304,304,304,304,304,0,0,0,0,
3221225531,304,303,130,303,303,304,304,304,304,304,304,0,0,0,0,
304,304,303,130,303,303,304,304,304,304,304,304,0,0,0,0,
304,304,303,130,303,303,304,304,304,304,304,304,0,0,0,0,
304,304,303,130,303,303,304,304,304,304,304,304,0,0,0,0,
304,304,303,130,303,303,304,304,304,304,304,304,0,0,0,0,
304,304,303,130,303,303,304,304,304,304,304,304,0,0,0,0,
304,304,303,130,303,303,304,304,304,304,304,304,0,0,0,0,
304,304,303,130,303,303,304,304,304,304,304,304,0,0,0,0,
304,304,303,130,303,303,304,304,304,304,304,304,304,0,0,0,
304,304,304,130,303,303,304,304,304,304,304,304,304,304,0,0,
304,304,304,130,303,303,304,304,304,304,304,304,0,0,0,0,
304,304,303,130,303,303,304,304,304,304,304,304,0,0,0,0
</chunk>
   <chunk x="0" y="32" width="16" height="16">
0,0,303,303,303,129,303,304,304,304,304,304,304,304,304,304,
0,0,303,303,303,129,303,303,303,303,303,303,303,303,303,303,
0,0,0,0,253,303,303,303,303,303,303,303,303,303,303,303,
0,0,0,0,253,303,303,303,303,303,303,303,303,303,303,303,
0,0,0,0,253,303,303,303,303,303,303,303,303,303,303,303,
0,0,0,0,0,303,303,303,303,303,303,303,303,303,303,303,
0,0,0,0,0,303,303,303,303,303,303,303,303,303,303,303,
0,0,0,0,0,0,0,0,0,0,0,0,0,0,0,0,
0,0,0,0,0,0,0,0,0,0,0,0,0,0,0,0,
0,0,0,0,0,0,0,0,0,0,0,0,0,0,0,0,
0,0,0,0,0,0,0,0,0,0,0,0,0,0,0,0,
0,0,0,0,0,0,0,0,0,0,0,0,0,0,0,0,
0,0,0,0,0,0,0,0,0,0,0,0,0,0,0,0,
0,0,0,0,0,0,0,0,0,0,0,0,0,0,0,0,
0,0,0,0,0,0,0,0,0,0,0,0,0,0,0,0,
0,0,0,0,0,0,0,0,0,0,0,0,0,0,0,0
</chunk>
   <chunk x="16" y="32" width="16" height="16">
304,304,304,304,304,304,304,304,304,304,304,304,304,304,304,304,
303,303,303,303,303,303,303,303,303,303,303,303,303,303,303,303,
303,303,303,303,303,303,303,303,303,303,303,303,303,303,303,303,
303,303,303,303,303,303,303,303,303,303,303,303,303,303,303,303,
303,303,303,303,303,303,303,303,303,303,303,303,303,303,303,303,
303,303,303,303,303,303,303,303,303,303,303,303,303,303,303,303,
303,303,303,303,303,303,303,303,303,303,303,303,303,303,303,303,
0,0,0,0,0,0,0,0,0,0,0,0,0,0,0,0,
0,0,0,0,0,0,0,0,0,0,0,0,0,0,0,0,
0,0,0,0,0,0,0,0,0,0,0,0,0,0,0,0,
0,0,0,0,0,0,0,0,0,0,0,0,0,0,0,0,
0,0,0,0,0,0,0,0,0,0,0,0,0,0,0,0,
0,0,0,0,0,0,0,0,0,0,0,0,0,0,0,0,
0,0,0,0,0,0,0,0,0,0,0,0,0,0,0,0,
0,0,0,0,0,0,0,0,0,0,0,0,0,0,0,0,
0,0,0,0,0,0,0,0,0,0,0,0,0,0,0,0
</chunk>
   <chunk x="32" y="32" width="16" height="16">
304,304,304,130,303,303,304,304,304,304,304,304,0,0,0,0,
303,303,303,130,303,303,304,304,304,304,304,304,0,0,0,0,
303,303,303,303,0,0,0,0,0,0,0,0,0,0,0,0,
303,303,303,0,0,0,0,0,0,0,0,0,0,0,0,0,
303,303,303,0,0,0,0,0,0,0,0,0,0,0,0,0,
303,303,303,0,0,0,0,0,0,0,0,0,0,0,0,0,
303,303,303,0,0,0,0,0,0,0,0,0,0,0,0,0,
0,0,0,0,0,0,0,0,0,0,0,0,0,0,0,0,
0,0,0,0,0,0,0,0,0,0,0,0,0,0,0,0,
0,0,0,0,0,0,0,0,0,0,0,0,0,0,0,0,
0,0,0,0,0,0,0,0,0,0,0,0,0,0,0,0,
0,0,0,0,0,0,0,0,0,0,0,0,0,0,0,0,
0,0,0,0,0,0,0,0,0,0,0,0,0,0,0,0,
0,0,0,0,0,0,0,0,0,0,0,0,0,0,0,0,
0,0,0,0,0,0,0,0,0,0,0,0,0,0,0,0,
0,0,0,0,0,0,0,0,0,0,0,0,0,0,0,0
</chunk>
  </data>
 </layer>
 <layer id="5" name="doors" width="49" height="35">
  <data encoding="csv">
   <chunk x="16" y="-16" width="16" height="16">
0,0,0,0,0,0,0,0,0,0,0,0,0,0,0,0,
0,0,0,0,0,0,0,0,0,0,0,0,0,0,0,0,
0,0,0,0,0,0,0,0,0,0,0,0,0,0,0,0,
0,0,0,0,0,0,0,0,0,0,0,0,0,0,0,0,
0,0,0,0,0,0,0,0,0,0,0,0,0,0,0,0,
0,0,0,0,0,0,0,0,0,0,0,0,0,0,0,0,
0,0,0,0,0,0,0,0,0,0,0,0,0,0,0,0,
0,0,0,0,0,0,0,0,0,0,0,0,0,0,0,0,
0,0,0,0,0,0,0,0,0,0,0,0,0,0,0,0,
0,0,0,0,0,0,0,0,0,0,0,0,0,0,0,0,
0,0,0,0,0,0,0,0,0,0,0,0,0,0,0,0,
0,0,0,0,0,0,0,0,0,0,0,0,0,0,0,0,
0,0,0,0,0,0,0,0,0,0,0,0,0,0,0,0,
0,0,0,0,0,0,0,0,0,0,0,0,0,0,0,0,
0,0,0,0,0,0,0,0,0,0,0,0,0,0,0,0,
0,0,0,0,253,0,0,0,0,0,0,0,0,0,0,0
</chunk>
   <chunk x="0" y="0" width="16" height="16">
0,0,0,0,0,0,0,0,0,0,0,0,0,0,0,0,
0,0,0,0,0,0,0,0,0,0,0,0,0,0,0,0,
0,0,0,0,0,0,0,0,0,0,0,0,0,0,0,0,
0,0,0,0,0,0,0,0,0,0,0,0,0,0,0,0,
0,0,0,0,0,0,0,0,0,0,0,0,0,0,0,0,
0,0,0,0,0,0,304,304,304,304,304,304,304,304,304,304,
0,0,0,0,0,0,304,304,304,304,304,304,304,304,304,304,
0,0,0,0,0,0,304,304,304,304,304,304,304,304,304,304,
0,0,0,0,0,0,304,304,304,304,304,304,304,304,304,304,
0,0,0,0,0,0,304,304,304,304,304,304,304,304,304,304,
0,0,0,0,0,0,304,304,304,304,304,304,304,304,304,304,
0,0,0,0,0,0,304,304,304,304,304,304,304,304,304,304,
0,0,0,0,0,0,304,304,304,304,304,304,304,304,304,304,
0,0,0,0,0,0,304,304,304,304,304,304,304,304,304,304,
0,0,0,0,0,0,304,304,304,304,304,304,304,304,304,304,
0,0,0,0,0,0,304,304,304,304,304,304,304,304,304,304
</chunk>
   <chunk x="16" y="0" width="16" height="16">
0,0,0,0,0,0,0,0,0,0,0,0,0,0,0,0,
0,0,0,0,0,0,0,0,0,0,0,0,0,0,0,0,
0,0,0,0,0,0,0,0,0,0,0,0,0,0,0,0,
0,0,0,0,304,0,0,0,0,0,0,0,0,0,0,0,
0,0,0,0,0,0,0,0,0,0,0,0,0,0,0,0,
304,304,304,304,304,304,304,304,304,304,304,304,304,304,304,304,
304,304,304,304,304,304,304,304,304,304,304,304,304,304,304,304,
304,304,304,304,304,304,304,304,304,304,304,304,304,304,304,304,
304,304,304,304,304,304,304,304,304,304,304,304,304,304,304,304,
304,304,304,304,304,304,304,304,304,304,304,304,304,304,304,304,
304,304,304,304,304,304,304,304,304,304,304,304,304,304,304,304,
304,304,304,304,304,304,304,304,304,304,304,304,304,304,304,304,
304,304,304,304,304,304,304,304,304,304,304,304,304,304,304,304,
304,304,304,304,304,304,304,304,304,304,304,304,304,304,304,304,
304,304,304,304,304,304,304,304,304,304,304,304,304,304,304,304,
304,304,304,304,304,304,304,304,304,304,304,304,304,304,304,304
</chunk>
   <chunk x="32" y="0" width="16" height="16">
0,0,0,0,0,0,0,0,0,0,0,0,0,0,0,0,
0,0,0,0,0,0,0,0,0,0,0,0,0,0,0,0,
0,0,0,0,0,0,0,0,0,0,0,0,0,0,0,0,
0,0,0,0,0,0,0,0,0,0,0,0,0,0,0,0,
0,0,0,0,0,0,0,0,0,0,0,0,0,0,0,0,
304,304,304,304,0,0,0,0,0,0,0,0,0,0,0,0,
304,304,304,304,0,0,0,0,0,0,0,0,0,0,0,0,
304,304,304,304,0,0,0,0,0,0,0,0,0,0,0,0,
304,304,304,304,0,0,0,0,0,0,0,0,0,0,0,0,
304,304,304,304,0,0,0,0,0,0,0,0,0,0,0,0,
304,304,304,304,0,0,0,0,0,0,0,0,0,0,0,0,
304,304,304,304,0,0,0,0,0,0,0,0,0,0,0,0,
304,304,304,304,0,0,0,0,0,0,0,0,0,0,0,0,
304,304,304,304,0,0,0,0,0,0,0,0,0,0,0,0,
304,304,304,304,0,0,0,0,0,0,0,0,0,0,0,0,
304,304,304,304,0,0,0,0,0,0,0,0,0,0,0,0
</chunk>
   <chunk x="0" y="16" width="16" height="16">
0,0,0,0,0,0,304,304,304,304,304,304,304,304,304,304,
0,0,0,0,0,0,304,304,304,304,304,304,304,304,304,304,
0,0,0,0,0,0,304,304,304,304,304,304,304,304,304,304,
0,0,0,0,0,0,304,304,304,304,304,304,304,304,304,304,
0,0,0,0,0,0,304,304,304,304,304,304,304,304,304,304,
0,0,0,0,0,0,304,304,304,304,304,304,304,304,304,304,
0,0,0,0,0,0,304,304,304,304,304,304,304,304,304,304,
0,0,0,0,0,0,304,304,304,304,304,304,304,304,304,304,
0,0,0,0,0,0,304,304,304,304,304,304,304,304,304,304,
0,0,0,0,0,0,304,304,304,304,304,304,304,304,304,304,
0,0,0,0,0,0,304,304,304,304,304,304,304,304,304,304,
0,0,0,0,0,0,304,304,304,304,304,304,304,304,304,304,
0,0,0,0,0,0,304,304,304,304,304,304,304,304,304,304,
0,0,0,0,0,0,304,304,304,304,304,304,304,304,304,304,
0,0,0,0,0,0,304,304,304,304,304,304,304,304,304,304,
0,0,0,0,0,0,304,304,304,304,304,304,304,304,304,304
</chunk>
   <chunk x="16" y="16" width="16" height="16">
304,304,304,304,304,304,304,304,304,304,304,304,304,304,304,304,
304,304,304,304,304,304,304,304,304,304,304,304,304,304,304,304,
304,304,304,304,304,304,304,304,304,304,304,304,304,304,304,304,
304,304,304,304,304,304,304,304,304,304,304,304,304,304,304,304,
304,304,304,304,304,304,304,304,304,304,304,304,304,304,304,304,
304,304,304,304,304,304,304,304,304,304,304,304,304,304,304,304,
304,304,304,304,304,304,304,304,304,304,304,304,304,304,304,304,
304,304,304,304,304,304,304,304,304,304,304,304,304,304,304,304,
304,304,304,304,304,304,304,304,304,304,304,304,304,304,304,304,
304,304,304,304,304,304,304,304,304,304,304,304,304,304,304,304,
304,304,304,304,304,304,304,304,304,304,304,304,304,304,304,304,
304,304,304,304,304,304,304,304,304,304,304,304,304,304,304,304,
304,304,304,304,304,304,304,304,304,304,304,304,304,304,304,304,
304,304,304,304,304,304,304,304,304,304,304,304,304,304,304,304,
304,304,304,304,304,304,304,304,304,304,304,304,304,304,304,304,
304,304,304,304,304,304,304,304,304,304,304,304,304,304,304,304
</chunk>
   <chunk x="32" y="16" width="16" height="16">
304,304,304,304,0,0,0,0,0,0,0,0,0,0,0,0,
304,304,304,304,0,0,0,0,0,0,0,0,0,0,0,0,
304,304,304,304,0,0,0,0,0,0,0,0,0,0,0,0,
304,304,304,304,0,0,0,0,0,0,0,0,0,0,0,0,
304,304,304,304,0,0,0,0,0,0,0,0,0,0,0,0,
304,304,304,304,0,0,0,0,0,0,0,0,0,0,0,0,
304,304,304,304,0,0,0,0,0,0,0,0,0,0,0,0,
304,304,304,304,0,0,0,0,0,0,0,0,0,0,0,0,
304,304,304,304,0,0,0,0,0,0,0,0,0,0,0,0,
304,304,304,304,0,0,0,0,0,0,0,0,0,0,0,0,
304,304,304,304,0,0,0,0,0,0,0,0,0,0,0,0,
304,304,304,304,0,0,0,0,0,0,0,0,0,0,0,0,
304,304,304,304,0,0,0,0,0,0,0,0,0,0,0,0,
304,304,304,304,0,0,0,0,0,0,0,0,0,0,0,0,
304,304,304,304,0,0,0,0,0,0,0,0,0,0,0,0,
304,304,304,304,0,0,0,0,0,0,0,0,0,0,0,0
</chunk>
   <chunk x="0" y="32" width="16" height="16">
0,0,0,0,0,0,304,304,304,304,304,304,304,304,304,304,
0,0,0,0,0,0,304,304,304,304,304,304,304,304,304,304,
0,0,0,0,0,0,0,0,0,0,0,0,0,0,0,0,
0,0,0,0,0,0,0,0,0,0,0,0,0,0,0,0,
0,0,0,0,0,0,0,0,0,0,0,0,0,0,0,0,
0,0,0,0,0,0,0,0,0,0,0,0,0,0,0,0,
0,0,0,0,0,0,0,0,0,0,0,0,0,0,0,0,
0,0,0,0,0,0,0,0,0,0,0,0,0,0,0,0,
0,0,0,0,0,0,0,0,0,0,0,0,0,0,0,0,
0,0,0,0,0,0,0,0,0,0,0,0,0,0,0,0,
0,0,0,0,0,0,0,0,0,0,0,0,0,0,0,0,
0,0,0,0,0,0,0,0,0,0,0,0,0,0,0,0,
0,0,0,0,0,0,0,0,0,0,0,0,0,0,0,0,
0,0,0,0,0,0,0,0,0,0,0,0,0,0,0,0,
0,0,0,0,0,0,0,0,0,0,0,0,0,0,0,0,
0,0,0,0,0,0,0,0,0,0,0,0,0,0,0,0
</chunk>
   <chunk x="16" y="32" width="16" height="16">
304,304,304,304,304,304,304,304,304,304,304,304,304,304,304,304,
304,304,304,304,304,304,304,304,304,304,304,304,304,304,304,304,
0,0,0,0,0,0,0,0,0,0,0,0,0,0,0,0,
0,0,0,0,0,0,0,0,0,0,0,0,0,0,0,0,
0,0,0,0,0,0,0,0,0,0,0,0,0,0,0,0,
0,0,0,0,0,0,0,0,0,0,0,0,0,0,0,0,
0,0,0,0,0,0,0,0,0,0,0,0,0,0,0,0,
0,0,0,0,0,0,0,0,0,0,0,0,0,0,0,0,
0,0,0,0,0,0,0,0,0,0,0,0,0,0,0,0,
0,0,0,0,0,0,0,0,0,0,0,0,0,0,0,0,
0,0,0,0,0,0,0,0,0,0,0,0,0,0,0,0,
0,0,0,0,0,0,0,0,0,0,0,0,0,0,0,0,
0,0,0,0,0,0,0,0,0,0,0,0,0,0,0,0,
0,0,0,0,0,0,0,0,0,0,0,0,0,0,0,0,
0,0,0,0,0,0,0,0,0,0,0,0,0,0,0,0,
0,0,0,0,0,0,0,0,0,0,0,0,0,0,0,0
</chunk>
   <chunk x="32" y="32" width="16" height="16">
304,304,304,304,0,0,0,0,0,0,0,0,0,0,0,0,
304,304,304,304,0,0,0,0,0,0,0,0,0,0,0,0,
0,0,0,0,0,0,0,0,0,0,0,0,0,0,0,0,
0,0,0,0,0,0,0,0,0,0,0,0,0,0,0,0,
0,0,0,0,0,0,0,0,0,0,0,0,0,0,0,0,
0,0,0,0,0,0,0,0,0,0,0,0,0,0,0,0,
0,0,0,0,0,0,0,0,0,0,0,0,0,0,0,0,
0,0,0,0,0,0,0,0,0,0,0,0,0,0,0,0,
0,0,0,0,0,0,0,0,0,0,0,0,0,0,0,0,
0,0,0,0,0,0,0,0,0,0,0,0,0,0,0,0,
0,0,0,0,0,0,0,0,0,0,0,0,0,0,0,0,
0,0,0,0,0,0,0,0,0,0,0,0,0,0,0,0,
0,0,0,0,0,0,0,0,0,0,0,0,0,0,0,0,
0,0,0,0,0,0,0,0,0,0,0,0,0,0,0,0,
0,0,0,0,0,0,0,0,0,0,0,0,0,0,0,0,
0,0,0,0,0,0,0,0,0,0,0,0,0,0,0,0
</chunk>
  </data>
 </layer>
 <objectgroup id="6" name="collisions">
  <object id="1" type="collision" x="79.6667" y="31.3333" width="495.667" height="46.0303"/>
  <object id="2" type="collision" x="81" y="544.333" width="495.667" height="16.6667"/>
  <object id="3" type="collision" x="561.667" y="76.3333" width="14.6667" height="468.667"/>
  <object id="4" type="collision" x="80" y="77.8485" width="14.6667" height="468.485"/>
  <object id="5" type="collision" x="208.674" y="77.4167" width="14.6667" height="11.1818"/>
  <object id="6" type="collision" x="272.492" y="77.1439" width="14.6667" height="11.1818"/>
  <object id="7" type="collision" x="144.674" y="77.2348" width="14.6667" height="11.1818"/>
  <object id="8" type="collision" x="368.674" y="76.8712" width="14.6667" height="11.1818"/>
  <object id="9" type="collision" x="432.856" y="77.053" width="14.6667" height="11.1818"/>
  <object id="11" type="collision" x="368.371" y="337.053" width="176.636" height="191.97"/>
  <object id="13" type="collision" x="356.735" y="336.326" width="10.4545" height="174.879"/>
  <object id="14" type="collision" x="290.917" y="337.598" width="10.4545" height="174.879"/>
  <object id="12" type="collision" x="110.917" y="336.689" width="176.636" height="191.97"/>
  <object id="10" type="collision" x="496.856" y="76.553" width="14.6667" height="11.1818"/>
 </objectgroup>
</map>
