<?xml version="1.0" encoding="UTF-8"?>
<map version="1.10" tiledversion="1.11.2" orientation="orthogonal" renderorder="right-down" width="30" height="20" tilewidth="16" tileheight="16" infinite="0" nextlayerid="7" nextobjectid="29">
 <tileset firstgid="1" source="tiles/walls_floor.tsx"/>
 <tileset firstgid="177" source="tiles/Interior.tsx"/>
 <layer id="1" name="Floor" width="30" height="20">
  <data encoding="csv">
15,24,24,24,24,24,24,24,24,24,24,24,24,24,24,24,24,24,24,24,24,24,24,24,24,24,24,24,24,16,
26,35,35,35,35,35,35,35,35,35,35,35,35,35,35,35,35,35,35,35,35,35,35,35,35,35,35,35,35,27,
37,46,46,46,46,46,46,46,46,46,46,46,46,46,46,46,46,46,46,46,46,46,46,46,46,46,46,46,46,38,
105,106,117,117,106,117,117,106,104,105,106,117,117,116,117,117,115,104,105,106,117,106,104,105,106,104,104,104,104,115,
105,104,105,106,117,106,105,104,105,106,117,115,116,117,104,105,104,105,106,117,117,104,105,106,104,115,104,104,115,104,
105,104,105,106,116,117,104,105,106,117,104,115,104,105,106,104,105,106,117,116,104,105,106,104,115,104,104,104,115,104,
105,104,105,106,115,104,105,106,117,104,104,105,106,106,104,105,106,117,115,116,104,105,106,115,104,104,104,115,116,104,
104,104,105,106,115,104,104,105,106,115,104,105,106,117,104,105,106,115,116,104,105,106,104,104,105,104,115,116,117,104,
115,104,105,106,115,115,115,104,104,104,104,105,106,104,104,105,106,116,104,105,106,104,115,104,104,105,115,116,104,104,
115,104,105,104,104,104,105,115,115,104,105,106,117,104,105,106,117,116,104,105,106,115,116,104,104,104,115,116,104,105,
115,104,104,104,105,104,104,115,116,104,105,106,117,104,105,106,104,105,106,105,104,115,104,104,104,115,116,117,104,105,
115,104,104,104,104,115,115,116,117,104,105,106,104,104,104,104,115,116,117,106,115,116,104,104,115,116,117,104,105,104,
115,104,104,105,115,116,117,105,106,115,104,104,104,104,115,115,116,117,105,106,115,104,104,105,106,106,117,104,104,104,
104,105,104,105,106,116,104,105,106,104,115,115,104,115,116,117,115,104,105,104,104,115,104,105,106,117,105,106,115,104,
105,104,105,106,117,117,104,105,106,115,104,104,115,116,117,115,104,104,105,106,115,104,105,106,117,104,105,106,116,104,
105,104,105,106,116,104,104,105,104,104,115,115,116,117,115,104,105,106,106,106,106,104,105,106,115,104,105,106,104,105,
106,104,105,106,104,115,104,104,115,115,116,117,106,115,104,105,106,117,117,117,117,105,106,117,104,105,106,106,104,105,
0,0,0,0,0,0,0,0,0,0,0,0,0,0,0,0,0,0,0,0,0,0,0,0,0,0,0,0,0,0,
0,0,0,0,0,0,0,0,0,0,0,0,0,0,0,0,0,0,0,0,0,0,0,0,0,0,0,0,0,0,
0,0,0,0,0,0,0,0,0,0,0,0,0,0,0,0,0,0,0,0,0,0,0,0,0,0,0,0,0,0
</data>
 </layer>
 <layer id="4" name="LR Wall &amp; Carpet" width="30" height="20">
  <data encoding="csv">
0,0,0,0,0,0,0,0,0,0,0,0,0,0,0,0,0,0,0,0,0,0,0,0,0,0,0,0,0,0,
0,0,0,0,0,0,0,0,0,0,0,0,0,0,0,0,0,0,0,0,0,0,0,0,0,0,0,0,0,0,
0,0,0,0,0,0,0,0,0,0,0,0,0,0,0,0,0,0,0,0,0,0,0,0,0,0,0,0,0,12,
14,0,0,0,0,0,0,0,0,0,0,0,0,0,0,0,0,0,0,0,0,0,0,0,0,0,0,0,0,12,
14,0,0,0,0,0,0,0,0,0,0,0,0,0,0,0,0,0,0,0,0,0,0,0,0,0,0,0,0,12,
14,0,0,0,0,0,0,0,0,0,0,0,0,0,0,0,0,0,0,0,0,0,0,0,0,0,0,0,0,12,
14,0,0,0,0,0,0,0,0,0,0,0,0,0,0,0,0,0,0,0,0,0,0,0,0,0,0,0,0,12,
14,0,0,0,403,404,405,406,407,0,0,0,0,0,0,0,0,0,0,0,0,0,0,0,0,0,0,0,0,12,
14,0,0,416,417,418,419,420,421,422,0,0,0,0,0,0,0,0,0,0,0,0,409,410,411,412,413,0,0,12,
14,0,0,430,431,432,433,434,435,436,0,0,0,0,0,0,0,0,0,0,0,0,423,424,425,426,427,0,0,12,
14,0,0,444,445,446,447,448,449,450,0,0,0,0,0,0,0,0,0,0,0,0,437,438,439,440,441,0,0,12,
14,0,0,458,459,460,461,462,463,464,0,0,0,0,0,0,0,0,0,0,0,0,451,452,453,454,455,0,0,12,
14,0,0,0,473,474,475,476,477,0,0,0,0,0,0,0,0,0,0,0,0,0,465,466,467,468,469,0,0,12,
14,0,0,0,0,0,0,0,0,0,0,0,0,0,0,0,0,0,0,0,0,0,0,0,0,0,0,0,0,12,
14,0,0,0,0,0,0,0,0,0,0,0,0,0,0,0,0,0,0,0,0,0,0,0,0,0,0,0,0,12,
14,0,0,0,0,0,0,0,0,0,0,0,0,0,0,0,0,0,0,0,0,0,0,0,0,0,0,0,0,12,
14,0,0,0,0,0,0,0,0,0,0,0,0,0,0,0,0,0,0,0,0,0,0,0,0,0,0,0,0,12,
0,0,0,0,0,0,0,0,0,0,0,0,0,0,0,0,0,0,0,0,0,0,0,0,0,0,0,0,0,0,
0,0,0,0,0,0,0,0,0,0,0,0,0,0,0,0,0,0,0,0,0,0,0,0,0,0,0,0,0,0,
0,0,0,0,0,0,0,0,0,0,0,0,0,0,0,0,0,0,0,0,0,0,0,0,0,0,0,0,0,0
</data>
 </layer>
 <layer id="5" name="Decoration" width="30" height="20">
  <data encoding="csv">
0,0,0,0,262,263,264,265,0,0,0,0,0,0,0,0,0,0,0,0,266,267,268,0,0,0,0,0,0,0,
272,273,0,0,276,277,278,279,0,0,0,0,0,0,0,0,73,74,0,0,280,281,282,322,323,322,323,324,225,226,
286,287,0,0,290,291,292,293,197,198,0,0,237,238,0,0,84,85,0,0,294,295,296,336,337,336,337,338,239,240,
300,301,0,0,304,305,306,307,211,212,0,0,251,252,0,0,0,0,0,0,308,309,310,350,351,350,351,352,253,254,
0,0,0,0,0,0,0,0,0,0,0,0,0,0,0,0,0,0,0,0,0,0,0,0,0,0,0,0,225,226,
0,0,0,0,0,0,0,0,0,0,0,0,0,0,0,0,0,0,0,0,0,0,0,0,0,0,0,0,239,240,
0,0,0,0,0,0,0,0,0,0,0,318,319,0,0,0,0,0,0,0,0,0,0,0,0,0,0,0,253,254,
0,0,0,0,0,0,0,0,0,0,0,332,333,0,0,272,273,272,273,0,0,0,0,0,353,0,0,0,0,0,
0,0,0,0,311,312,313,314,315,0,0,346,347,0,0,286,287,286,287,0,0,0,0,0,367,0,0,0,0,0,
0,0,0,0,325,326,327,328,329,0,0,318,319,0,0,300,301,300,301,0,0,365,366,360,361,362,363,364,0,0,
0,0,0,0,339,340,341,342,343,0,0,332,333,0,0,0,0,0,0,0,0,379,380,374,375,376,377,378,0,0,
0,0,0,0,0,354,355,356,357,0,0,346,347,0,0,0,0,0,0,0,0,0,0,388,389,390,0,0,0,0,
0,0,0,0,0,0,0,0,0,0,0,0,0,0,0,0,0,0,0,0,0,0,0,0,381,0,0,0,0,0,
0,0,0,0,0,0,0,0,0,0,0,0,0,0,0,0,0,0,0,0,0,0,0,0,395,0,0,0,0,0,
0,0,0,0,0,0,0,0,0,0,0,0,0,0,0,0,0,0,0,0,0,0,0,0,0,0,0,0,0,0,
0,0,0,0,0,0,0,0,0,0,0,0,0,0,0,0,0,0,0,0,0,0,0,0,0,0,0,0,0,0,
0,192,193,194,0,0,0,0,0,0,0,0,0,0,0,0,0,0,0,0,0,0,0,0,0,0,0,0,0,0,
24,24,24,24,24,24,24,24,24,24,24,24,24,24,24,24,24,24,24,24,24,24,24,24,24,24,24,24,24,24,
35,35,35,35,35,35,35,35,35,35,35,35,35,35,35,35,35,35,35,35,35,35,35,35,35,35,35,35,35,35,
46,46,46,46,46,46,46,46,46,46,46,46,46,46,46,46,46,46,46,46,46,46,46,46,46,46,46,46,46,46
</data>
 </layer>
 <objectgroup id="2" name="portals">
  <object id="1" name="spawn_house1" x="39.2753" y="213.504">
   <point/>
  </object>
  <object id="2" name="exit_house1" x="18.6041" y="265.477" width="41.933" height="9.74499"/>
  <object id="3" name="enter_room1" x="260.412" y="46.6176" width="22.7383" height="14.1745"/>
  <object id="4" name="enter_exit_room1_house1" x="269.021" y="81.2083">
   <point/>
  </object>
 </objectgroup>
 <objectgroup id="6" name="collisions">
  <object id="6" type="collision" x="4" y="18.3333" width="2" height="306"/>
  <object id="7" type="collision" x="-1" y="271.5" width="481" height="47.5"/>
  <object id="8" type="collision" x="477" y="1.33333" width="2.33333" height="271.667"/>
  <object id="9" type="collision" x="0.916667" y="10.6667" width="479" height="44.6667"/>
  <object id="10" type="collision" x="275.667" y="-81"/>
  <object id="12" type="collision" x="72.75" y="144" width="63.75" height="52.5"/>
  <object id="13" type="collision" x="187.25" y="109.5" width="15.75" height="34"/>
  <object id="14" type="collision" x="187.75" y="155.25" width="15.5" height="35.75"/>
  <object id="15" type="collision" x="244.5" y="123.25" width="56.25" height="41.25"/>
  <object id="16" type="collision" x="0.5" y="44.25" width="27" height="15.25"/>
  <object id="17" type="collision" x="73.75" y="46" width="46" height="15.25"/>
  <object id="18" type="collision" x="135.25" y="41.75" width="16.5" height="22"/>
  <object id="19" type="collision" x="197" y="38" width="25.5" height="24"/>
  <object id="20" type="collision" x="322" y="53.5" width="113.75" height="9.75"/>
  <object id="21" type="collision" x="453" y="49.25" width="26.25" height="11.25"/>
  <object id="22" type="collision" x="452.5" y="82.75" width="26" height="30.5"/>
  <object id="23" type="collision" x="344.75" y="150.5" width="11" height="24.25"/>
  <object id="24" type="collision" x="386.25" y="121" width="11.5" height="19.5"/>
  <object id="25" type="collision" x="373.75" y="150" width="37.25" height="31.75"/>
  <object id="26" type="collision" x="429.75" y="153.25" width="10" height="22.25"/>
  <object id="27" type="collision" x="386.25" y="201.75" width="10.75" height="19.25"/>
 </objectgroup>
</map>
