<?xml version="1.0" encoding="UTF-8"?>
<map version="1.10" tiledversion="1.11.2" orientation="orthogonal" renderorder="right-down" width="15" height="15" tilewidth="16" tileheight="16" infinite="0" nextlayerid="5" nextobjectid="3">
 <tileset firstgid="1" source="tiles/Interior.tsx"/>
 <tileset firstgid="379" source="tiles/walls_floor.tsx"/>
 <layer id="1" name="Sol et Mur" width="15" height="15">
  <data encoding="csv">
402,402,402,402,402,402,402,402,402,402,402,402,402,402,402,
413,413,413,413,413,413,413,413,413,413,413,413,413,413,413,
424,424,424,424,424,424,424,424,424,424,424,424,424,424,424,
484,495,482,483,484,484,484,484,495,495,495,495,495,482,482,
483,482,483,484,484,495,495,495,482,482,483,484,484,484,484,
483,482,483,484,495,493,482,483,484,482,483,484,495,495,495,
483,482,483,484,494,482,482,483,484,482,483,484,493,494,495,
482,483,484,495,482,483,482,483,484,482,483,484,493,482,483,
482,483,484,482,483,484,482,483,482,483,484,484,482,483,484,
482,483,484,482,483,484,482,483,493,494,495,484,484,484,495,
482,483,482,483,484,495,493,482,493,493,494,495,484,495,494,
482,483,482,483,484,482,493,482,493,494,495,484,495,493,494,
402,402,402,402,402,402,402,402,402,402,402,402,402,402,402,
413,413,413,413,413,413,413,413,413,413,413,413,413,413,413,
424,424,424,424,424,424,424,424,424,424,424,424,424,424,424
</data>
 </layer>
 <layer id="2" name="Object Couche 1" width="15" height="15">
  <data encoding="csv">
392,86,87,88,89,0,0,0,0,0,86,87,88,89,390,
392,100,101,102,103,0,93,94,95,0,100,101,102,103,390,
392,114,115,116,117,0,107,108,109,0,114,115,116,117,390,
392,128,129,130,131,0,121,122,123,0,128,129,130,131,390,
392,2147483791,2147483790,0,0,227,228,229,230,231,0,0,0,0,390,
392,2147483805,2147483804,0,240,241,242,243,244,245,246,0,0,0,390,
392,2147483819,2147483818,0,254,255,256,257,258,259,260,184,185,186,390,
392,2147483791,2147483790,0,268,269,270,271,272,273,274,198,199,200,390,
392,2147483805,2147483804,0,282,283,284,285,286,287,288,212,0,214,390,
392,2147483819,2147483818,0,0,297,298,299,300,301,0,0,0,0,390,
392,0,0,0,0,0,0,0,0,0,0,0,0,0,390,
392,0,0,0,0,0,0,0,0,0,0,0,0,0,390,
0,0,0,0,0,0,0,0,0,0,0,0,0,0,0,
0,0,0,0,0,0,0,0,0,0,0,0,0,0,0,
0,0,0,0,0,0,0,0,0,0,0,0,0,0,0
</data>
 </layer>
 <layer id="3" name="Object Couche 3" width="15" height="15">
  <data encoding="csv">
0,0,0,0,0,0,0,0,0,0,0,0,0,0,0,
0,0,0,0,0,0,0,0,0,0,0,0,0,0,0,
0,0,0,0,0,0,0,0,0,0,0,0,0,0,0,
0,0,0,0,0,0,0,0,0,0,0,0,0,0,0,
0,0,0,0,0,0,0,0,0,0,0,0,177,0,0,
0,0,0,0,0,135,136,137,138,139,0,0,191,0,0,
0,0,0,0,0,149,150,151,152,153,0,0,0,0,0,
0,0,0,0,0,163,164,165,166,167,0,0,205,0,0,
0,0,0,0,0,0,178,179,180,0,0,0,219,0,0,
0,0,0,0,0,0,0,0,0,0,0,0,0,0,0,
0,0,0,0,0,0,0,0,0,0,0,0,0,0,0,
0,0,0,0,0,0,16,17,18,0,0,0,0,0,0,
0,0,0,0,0,0,0,0,0,0,0,0,0,0,0,
0,0,0,0,0,0,0,0,0,0,0,0,0,0,0,
0,0,0,0,0,0,0,0,0,0,0,0,0,0,0
</data>
 </layer>
 <objectgroup id="4" name="portals">
  <object id="1" name="exit_house2" type="exit_house2" x="98.5" y="185.75" width="41.75" height="11.25"/>
  <object id="2" name="spawn_house2" type="spawn_house2" x="53" y="94.75">
   <point/>
  </object>
 </objectgroup>
</map>
