<?xml version="1.0" encoding="UTF-8"?>
<map version="1.10" tiledversion="1.11.2" orientation="orthogonal" renderorder="right-down" width="30" height="20" tilewidth="16" tileheight="16" infinite="1" nextlayerid="2" nextobjectid="1">
 <tileset firstgid="1" source="tiles/Floors_Tiles.tsx"/>
 <layer id="1" name="Calque de Tuiles 1" width="30" height="20">
  <data encoding="csv">
   <chunk x="-16" y="-16" width="16" height="16">
252,253,254,253,252,252,254,252,253,252,252,254,254,254,253,253,
252,252,253,253,252,252,254,252,252,252,254,252,252,253,253,253,
252,252,253,254,253,253,253,252,253,252,252,254,253,254,252,254,
254,253,254,254,253,254,252,252,252,254,252,253,253,253,252,252,
254,253,254,254,254,254,252,252,254,253,254,253,254,254,253,253,
252,254,254,252,253,252,254,252,252,252,254,253,254,254,254,254,
253,253,254,254,252,253,252,253,254,253,254,253,252,253,252,252,
252,252,252,252,254,252,254,254,254,252,252,252,253,254,254,253,
253,252,253,252,253,254,252,253,254,253,252,254,253,252,254,252,
252,252,253,254,253,252,253,254,254,254,254,252,253,254,253,252,
254,252,252,254,254,253,254,252,253,254,252,254,252,253,254,252,
254,252,254,252,252,252,254,254,253,253,252,252,253,254,252,253,
254,254,253,252,254,253,252,253,253,254,252,252,253,253,252,253,
252,252,252,252,254,254,254,252,253,253,254,252,253,254,252,254,
252,254,254,252,252,252,253,254,252,252,254,254,252,252,254,253,
252,254,254,253,253,254,253,253,254,252,253,253,252,252,253,254
</chunk>
   <chunk x="0" y="-16" width="16" height="16">
252,253,253,252,253,254,252,253,254,254,254,252,253,253,252,253,
253,253,254,254,254,253,253,254,254,253,253,254,254,254,254,252,
252,253,252,252,252,252,252,252,254,252,252,254,252,253,252,253,
254,254,252,253,254,254,254,252,253,254,254,253,252,253,254,254,
252,252,254,253,252,254,253,253,253,253,254,252,254,254,253,254,
252,254,252,254,253,254,253,254,252,254,252,253,254,254,254,254,
254,254,253,253,254,252,253,252,252,252,252,253,254,254,253,253,
253,252,253,252,253,253,252,252,253,253,253,254,252,253,252,254,
252,254,253,253,254,253,252,254,254,254,252,253,254,252,254,254,
254,254,254,252,253,252,253,253,252,252,252,252,253,253,252,253,
254,254,252,252,252,254,254,253,254,252,254,253,254,253,253,252,
254,253,253,254,252,253,254,254,253,252,254,254,254,252,253,252,
252,254,253,254,252,252,254,253,252,254,252,253,252,254,254,252,
254,254,252,254,254,252,252,252,254,254,252,254,253,253,252,254,
254,254,254,253,254,253,252,252,252,253,253,252,253,252,254,254,
253,254,254,254,254,254,253,253,254,253,254,252,252,252,252,252
</chunk>
   <chunk x="16" y="-16" width="16" height="16">
252,254,253,254,254,253,254,254,252,254,254,252,254,252,253,253,
252,253,253,252,252,252,253,253,254,253,254,254,252,252,252,253,
252,253,252,253,254,254,253,253,252,254,253,253,252,253,253,252,
253,252,254,252,254,252,252,254,254,254,254,254,253,254,252,252,
252,253,252,254,253,253,253,252,252,252,254,253,253,253,253,254,
252,252,254,253,254,253,254,252,254,253,254,252,254,254,253,253,
253,252,252,252,253,254,254,252,253,253,252,254,252,253,254,253,
254,254,254,254,252,252,252,252,253,252,253,252,253,254,253,252,
253,254,252,254,252,252,254,254,252,252,254,252,252,253,254,254,
252,254,254,252,253,253,252,254,254,253,254,254,253,254,253,254,
252,253,254,253,253,253,252,252,252,253,253,253,253,254,253,252,
253,254,252,252,253,254,254,253,253,254,253,252,252,252,254,253,
254,254,253,252,254,253,253,254,252,253,252,254,253,254,252,254,
252,253,254,254,252,252,252,254,254,253,252,253,252,253,252,253,
252,252,253,252,253,253,252,253,252,253,253,254,252,253,253,254,
253,252,254,253,253,253,253,252,253,253,254,252,254,253,253,252
</chunk>
   <chunk x="-16" y="0" width="16" height="16">
252,254,253,252,253,254,253,253,252,252,253,252,252,254,254,252,
252,254,252,254,254,252,254,253,252,252,253,254,253,254,254,254,
252,254,253,254,252,253,252,254,253,252,254,254,254,253,253,253,
252,252,253,252,252,253,252,252,252,253,253,253,254,252,254,252,
252,254,252,254,253,253,252,252,252,252,254,252,253,252,253,252,
254,254,253,253,254,252,252,254,253,252,253,254,254,252,254,252,
254,252,252,253,252,253,253,253,254,254,254,252,253,253,252,254,
254,254,254,254,254,252,254,253,253,254,252,252,253,252,254,252,
254,254,254,252,254,253,252,252,252,253,253,254,253,254,254,254,
252,252,254,252,252,253,254,252,254,254,252,252,253,253,252,252,
253,253,253,254,252,254,254,252,253,252,252,252,252,254,252,252,
252,254,253,253,253,254,252,254,253,254,252,254,254,252,254,252,
252,253,252,253,253,254,252,254,254,253,253,254,253,252,253,254,
253,252,254,252,253,252,254,252,254,254,252,254,252,252,253,252,
252,253,253,253,253,254,252,253,253,253,253,253,253,252,253,253,
252,254,252,253,252,253,253,254,254,253,253,253,252,253,252,254
</chunk>
   <chunk x="0" y="0" width="16" height="16">
253,254,253,252,254,252,252,254,254,254,254,253,252,252,253,254,
254,252,254,252,252,254,252,252,254,254,252,252,253,254,253,252,
253,253,252,253,252,254,253,253,252,253,254,253,253,253,252,253,
253,252,254,254,254,254,252,253,254,254,253,252,252,252,253,252,
254,254,253,253,254,253,254,254,252,254,253,253,254,254,254,254,
253,253,253,252,253,253,253,252,254,254,252,253,254,252,252,254,
253,254,252,252,254,253,253,252,253,252,252,252,252,253,253,253,
254,254,254,254,253,252,254,252,253,253,254,252,253,253,253,253,
252,254,252,254,252,253,253,253,254,254,252,253,252,252,252,252,
253,253,253,252,253,254,252,252,253,253,253,254,253,254,252,254,
253,253,252,252,253,252,252,253,254,252,254,253,254,252,252,253,
252,253,252,253,252,252,254,254,254,253,254,253,254,252,253,253,
254,252,252,253,253,254,254,253,252,254,252,252,254,254,254,254,
253,253,252,252,254,252,254,253,254,253,252,254,252,254,254,252,
253,254,252,252,253,254,254,253,252,253,253,253,253,254,252,252,
253,254,253,252,254,253,253,253,252,253,254,253,254,254,252,253
</chunk>
   <chunk x="16" y="0" width="16" height="16">
252,253,254,254,252,253,253,253,252,252,254,254,252,252,253,253,
253,253,253,252,254,254,252,253,254,252,254,252,253,253,254,254,
253,254,254,252,252,254,254,253,253,254,253,253,253,253,254,253,
252,253,253,252,254,252,252,253,252,252,253,252,254,252,254,253,
253,254,252,253,252,252,252,252,254,253,253,252,254,254,254,254,
252,253,254,254,253,253,254,254,252,254,253,254,252,254,254,253,
254,252,253,253,253,252,253,254,252,252,252,252,254,254,254,252,
252,253,252,252,253,253,253,253,252,254,254,252,252,254,253,253,
252,253,254,254,253,252,254,254,253,254,254,252,252,253,253,252,
254,254,252,253,252,252,252,253,253,254,252,253,254,253,252,254,
254,252,253,253,254,253,254,253,253,252,252,254,254,253,252,252,
253,253,253,254,253,254,253,252,254,252,252,252,252,253,253,253,
252,254,253,252,253,254,254,252,254,252,252,253,253,254,254,253,
254,253,254,253,252,252,253,253,254,252,253,254,253,254,252,252,
252,252,253,253,253,253,254,254,253,253,253,252,253,252,254,254,
254,253,253,253,254,253,252,253,253,253,254,254,254,253,252,252
</chunk>
  </data>
 </layer>
</map>
